svgs/sharp-light/dial-med.svg

<svg xmlns="http://www.w3.org/2000/svg" viewBox="0 0 576 512"><!--! Font Awesome Pro 6.6.0 by @fontawesome - https://fontawesome.com License - https://fontawesome.com/license (Commercial License) Copyright 2024 Fonticons, Inc. --><path d="M312 8L264 8l0 48 48 0 0-48zM120 72L72 72l0 48 48 0 0-48zm336 0l0 48 48 0 0-48-48 0zM568 264l-48 0 0 48 48 0 0-48zM8 264l0 48 48 0 0-48L8 264zM120 456l-48 0 0 48 48 0 0-48zm336 0l0 48 48 0 0-48-48 0zM160 288c0-65.3 48.9-119.1 112-127l0 127 0 16 32 0 0-16 0-127c63.1 7.9 112 61.7 112 127c0 70.7-57.3 128-128 128s-128-57.3-128-128zM288 128a160 160 0 1 0 0 320 160 160 0 1 0 0-320z"/></svg>

<svg xmlns="http://www.w3.org/2000/svg" viewBox="0 0 576 512"><!--! Font Awesome Pro 6.5.2 by @fontawesome - https://fontawesome.com License - https://fontawesome.com/license (Commercial License) Copyright 2024 Fonticons, Inc. --><path d="M312 8H264V56h48V8zM120 72H72v48h48V72zm336 0v48h48V72H456zM568 264H520v48h48V264zM8 264v48H56V264H8zM120 456H72v48h48V456zm336 0v48h48V456H456zM160 288c0-65.3 48.9-119.1 112-127V288v16h32V288 161c63.1 7.9 112 61.7 112 127c0 70.7-57.3 128-128 128s-128-57.3-128-128zM288 128a160 160 0 1 0 0 320 160 160 0 1 0 0-320z"/></svg>
